X: 6506
T: Cat That Ate The Candle, The
R: reel
M: 4/4
K: Gmajor
(3gfe|dcAG FDDE|FGAB cAdc|A2 GB AGAB|cAGE F3G|
(3AcA GB ADDE|FGAB cAdc|(3AcA GB A3B|cAGE F3G||
A2 de fedf|edce dcAd|(3AcA de fefg|afge fde^c|
A2 de fedf|ed=ce dcAG|A2 de f3g|afge fde^c||

